X:1446
T:Polska efter Ingels Jan Andersson (SvL Dalarna 1446)
R:Polska
S:Ingels Jan Andersson
O:St. Skedvi, Dalarna
N:Svenska Låtar Dalarna, 1446
B:Svenska Låtar Dalarna
Z:Till abc Jonas Brunskog
M:3/4
L:1/8
Q:1/4=144
K:D
vA2 ((3dcd) f2|d2 Bc e2|A2 df cd|Bc A4:|
|:A>F ((3DFA) d2|B2 GB A2|A>F ((3DFA) d2|B2 GB A2|a2 ga fg|ef d4:|

